X: 1183
T: Kaddi Bâlâ Hoş Edâ
C: Ahmet Avni Konuk
O: Turkey
F: http://compmusic.upf.edu/node/140
N: evcara--kupe--agirevfer--kaddi--ahmet_avni_konuk
N: makam= evcara
N: form= kupe
N: usul= agirevfer = 9/4
M: 9/4
L: 1/16
K: C _1/4B ^f ^c ^A
Q: 1/4=72
%%MIDI tuningsystem comma53
z4 f8 f2^e2 d2e2 f2g2 e4 f4 z4  | \
w:  Kad di  *  bâ *  *  *  lâ   | 
z4 f4 =a4 a4 a3^g f2a2 a2g2 f2^e2 f4  | 
w:  hoş  *  e dâ  *  *  *  â  | 
z4 ^e2f2 g4 f2e2 e2d2 d2ef edc=B c2d2 c4  | \
w:  fet  *  *  ni *  geh  *  *  *  *  yos  | 
z4 d2^e2 d4 e4 f3e d2e2 f2e2 f4 z4  | 
w:  ma  *  *  re viş    | 
z4 d8 d2c2 c3B A2B2 c2d2 c2d2 c2B2  | \
w:  Böy le  *  bir  *  *  *  hur  | 
z4 c2d2 c4 d4 ^e4 d2e2 f2e2 f4 z4  | 
w:  şîd_ *  *  i  Ev *  *  câ  | 
z4 B2c2 B4 c2d2 ^e2d2 c2B2 A2G2 F4 B4  | \
w:  râ  *  *  ci *  hâ *  *  *  na   | 
z4 A2B2 =c4 B2A2 A3G G2GF F8 z4  | 
w:  gel *  *  me *  miş    | 
|


